X:350
%%topmargin 3cm
T:Brechin Castle
C:
O:Scotland
B:Keith Norman MacDonald : "The Skye collection of the best reels & strathspeys extant" : 1887
Z:Ralph Palmer
R:Strathspey
M:C
L:1/8
K:F ionian
F S|: B/B/B TB2 B>df>d | B/B/B TB2 {AB}(c>B)A<F | B/B/B ~B2 B>df>d | e<gd<f {AB}(c>B)A<F ::
Tf>B (e/d/)(c/B/) Tfg | TfB (e/d/)(c/B/) {AB}c>BA<F | Tf>B (e/d/)(c/B/) ff | [1 e<gd>f {AB}(c>B)A<F :| [2 e<gdB)A<F S|]
